src/assets/icons/edit.svg

<svg widh="100%" height="100%" viewBox="0 0 24 24" fill="current"
  xmlns="http://www.w3.org/2000/svg">
  <path fill-rule="evenodd" clip-rule="evenodd" d="M4 5C3.73478 5 3.48043 5.10536 3.29291 5.29289L3.29289 5.29291C3.10536 5.48043 3 5.73478 3 6V20C3 20.2652 3.10534 20.5195 3.29292 20.7071L2.58648 21.4135L3.29292 20.7071C3.48044 20.8946 3.73477 21 4 21H18C18.2652 21 18.5195 20.8947 18.7071 20.7071C18.8947 20.5195 19 20.2652 19 20V14.66C19 14.1077 19.4477 13.66 20 13.66C20.5523 13.66 21 14.1077 21 14.66V20C21 20.7956 20.6839 21.5587 20.1213 22.1213C19.5587 22.6839 18.7956 23 18 23H4C3.20437 23 2.44128 22.684 1.87866 22.1213C1.31608 21.5587 1 20.7956 1 20V6C1 5.20437 1.31606 4.4413 1.87867 3.87869C1.87868 3.87869 1.87869 3.87868 1.87869 3.87867M1.87869 3.87867C2.4413 3.31606 3.20437 3 4 3H9.34C9.89228 3 10.34 3.44772 10.34 4C10.34 4.55228 9.89228 5 9.34 5H4"/>
  <path fill-rule="evenodd" clip-rule="evenodd" d="M17.2929 1.29289C17.6834 0.902369 18.3166 0.902369 18.7071 1.29289L22.7071 5.29289C23.0976 5.68342 23.0976 6.31658 22.7071 6.70711L12.7071 16.7071C12.5196 16.8946 12.2652 17 12 17H8C7.44772 17 7 16.5523 7 16V12C7 11.7348 7.10536 11.4804 7.29289 11.2929L17.2929 1.29289ZM9 12.4142V15H11.5858L20.5858 6L18 3.41421L9 12.4142Z"/>
</svg>

<svg xmlns="http://www.w3.org/2000/svg" fill="currentColor" viewBox="0 0 24 24">
  <path fill-rule="evenodd" d="M4 5a1 1 0 0 0-1 1v14a1 1 0 0 0 .293.707l-.707.706.707-.706A1 1 0 0 0 4 21h14a1 1 0 0 0 1-1v-5.34a1 1 0 1 1 2 0V20a3 3 0 0 1-3 3H4a3 3 0 0 1-3-3V6a3 3 0 0 1 .879-2.121m0 0A3 3 0 0 1 4 3h5.34a1 1 0 0 1 0 2H4" clip-rule="evenodd"/>
  <path fill-rule="evenodd" d="M17.293 1.293a1 1 0 0 1 1.414 0l4 4a1 1 0 0 1 0 1.414l-10 10A1 1 0 0 1 12 17H8a1 1 0 0 1-1-1v-4a1 1 0 0 1 .293-.707l10-10ZM9 12.414V15h2.586l9-9L18 3.414l-9 9Z" clip-rule="evenodd"/>
</svg>
